apps/scalable/azureus.svg

<svg xmlns="http://www.w3.org/2000/svg" style="isolation:isolate" width="256" height="256"><defs><filter id="a" width="270.648" height="254.338" x="-7.32" y="2.95" filterUnits="userSpaceOnUse"><feGaussianBlur xmlns="http://www.w3.org/2000/svg" in="SourceGraphic" stdDeviation="4.294"/><feOffset xmlns="http://www.w3.org/2000/svg" dy="4" result="pf_100_offsetBlur"/><feFlood xmlns="http://www.w3.org/2000/svg" flood-opacity=".4"/><feComposite xmlns="http://www.w3.org/2000/svg" in2="pf_100_offsetBlur" operator="in" result="pf_100_dropShadow"/><feBlend xmlns="http://www.w3.org/2000/svg" in="SourceGraphic" in2="pf_100_dropShadow"/></filter></defs><g filter="url(#a)"><linearGradient id="b" x1=".25" x2=".752" y1=".036" y2=".904" gradientTransform="matrix(244.648 0 0 228.338 5.676 11.947)" gradientUnits="userSpaceOnUse"><stop offset="2.609%" stop-color="#001f6c"/><stop offset="100%" stop-color="#1b3575"/></linearGradient><path fill="url(#b)" d="M165.685 11.947c74.055 0 84.639 10.557 84.639 84.544v59.251c0 73.986-10.584 84.543-84.639 84.543h-75.37c-74.055 0-84.639-10.557-84.639-84.543V96.491c0-73.987 10.584-84.544 84.639-84.544h75.37z"/></g><path fill="#6FA3E1" d="M137.67 48.745c-17.819 4.864-23.264 10.475-28.09 28.682-4.207 15.339-6.187 18.207-16.829 23.445-8.786 4.364-9.157 4.738-9.157 8.854 0 2.369.495 4.739 1.238 5.113.742.498.123 2.244-1.485 4.489l-2.723 3.616-2.598-2.494c-1.485-1.371-3.465-2.494-4.455-2.494-3.094 0-8.167 6.36-12.127 14.965-2.103 4.988-5.197 9.228-7.548 10.974-3.217 2.494-3.836 3.616-3.094 6.235 1.238 5.487 7.301 10.226 12.993 10.226 4.702 0 9.9 3.242 9.9 6.11 0 .749 1.608 2.245 3.588 3.368 1.98 1.247 4.579 4.239 5.816 6.858 2.475 5.737 11.756 15.214 17.448 17.958 2.227 1.122 8.167 2.868 13.117 3.866 4.826.997 12.621 3.491 17.2 5.611 9.033 4.116 17.076 5.986 17.076 3.991 0-1.871-2.474-3.617-7.672-5.238-5.692-1.87-8.414-4.863-5.816-6.36.99-.623 4.208-1.496 7.301-1.87 13.365-1.871 27.719-8.106 24.996-10.85-.866-.872-3.341-.498-8.043 1.247l-6.806 2.619-.742-3.866c-.99-5.237-8.786-12.345-16.334-15.089-3.465-1.247-7.549-3.117-9.034-4.115l-2.722-1.995 5.692-5.113c7.054-6.236 10.518-11.598 14.231-22.073 1.608-4.489 3.341-8.605 3.959-9.228 1.485-1.871 7.673 4.739 10.89 11.722 1.609 3.492 2.475 6.609 1.98 7.108-.495.624-4.579 1.247-8.91 1.621-4.331.375-7.919 1.123-7.919 1.871s5.073 1.621 11.508 1.995c6.311.499 10.958.815 15.414.838 14.303-.545 18.187-4.053 23.731-4.511 12.37-1.025 12.561-4.179 11.359-6.188-2.934-4.905-7.49 1.778-9.801 2.398-2.483.665-14.842 1.436-15.257.444-.807-1.934 1.693-8.582 5.991-11.371 7.11-4.615 9.842-11.205 3.532-11.822-2.764-.27-6.382 4.048-6.751 8.565-.331 4.045-7.865 11.919-10.333 11.411-1.351-.278-2.545-1.4-3.902-2.732-5.569-5.363-7.796-10.974-10.271-25.44-1.114-5.986-.866-6.859 2.97-13.094 9.652-15.713 7.177-45.393-4.331-50.755-3.712-1.746-11.756-1.497-19.18.499v-.001z"/><g opacity=".4"><linearGradient id="c" x1=".517" x2=".517" y2="1"><stop offset="0%" stop-color="#fff"/><stop offset="12.5%" stop-opacity=".098" stop-color="#fff"/><stop offset="92.5%" stop-opacity=".098"/><stop offset="100%" stop-opacity=".498"/></linearGradient><path fill="none" stroke="url(#c)" stroke-linecap="round" stroke-linejoin="round" stroke-width="4.077" d="M165.685 11.947c74.055 0 84.639 10.557 84.639 84.544v59.251c0 73.986-10.584 84.543-84.639 84.543h-75.37c-74.055 0-84.639-10.557-84.639-84.543V96.491c0-73.987 10.584-84.544 84.639-84.544h75.37z" vector-effect="non-scaling-stroke"/></g><path fill="#FFF" d="M5.676 126.116v29.626c0 73.986 10.584 84.543 84.639 84.543h75.37c74.055 0 84.639-10.557 84.639-84.543v-29.626H5.676z" opacity=".1"/></svg>

<svg xmlns="http://www.w3.org/2000/svg" style="isolation:isolate" width="256" height="256" viewBox="0 0 256 256">
 <defs>
  <filter id="Z319wkvIcaLPUarhrevfFIK6pnnWDvqS" width="270.648" height="254.338" x="-7.32" y="2.95" filterUnits="userSpaceOnUse">
   <feGaussianBlur xmlns="http://www.w3.org/2000/svg" in="SourceGraphic" stdDeviation="4.294"/>
   <feOffset xmlns="http://www.w3.org/2000/svg" dx="0" dy="4" result="pf_100_offsetBlur"/>
   <feFlood xmlns="http://www.w3.org/2000/svg" flood-opacity=".4"/>
   <feComposite xmlns="http://www.w3.org/2000/svg" in2="pf_100_offsetBlur" operator="in" result="pf_100_dropShadow"/>
   <feBlend xmlns="http://www.w3.org/2000/svg" in="SourceGraphic" in2="pf_100_dropShadow" mode="normal"/>
  </filter>
 </defs>
 <g filter="url(#Z319wkvIcaLPUarhrevfFIK6pnnWDvqS)">
  <linearGradient id="_lgradient_1" x1=".25" x2=".752" y1=".036" y2=".904" gradientTransform="matrix(244.648,0,0,228.338,5.676,11.947)" gradientUnits="userSpaceOnUse">
   <stop offset="2.609%" style="stop-color:rgb(0,31,108)"/>
   <stop offset="100%" style="stop-color:rgb(27,53,117)"/>
  </linearGradient>
  <path fill="url(#_lgradient_1)" d="M 165.685 11.947 C 239.74 11.947 250.324 22.504 250.324 96.491 L 250.324 155.742 C 250.324 229.728 239.74 240.285 165.685 240.285 L 90.315 240.285 C 16.26 240.285 5.676 229.728 5.676 155.742 L 5.676 96.491 C 5.676 22.504 16.26 11.947 90.315 11.947 L 165.685 11.947 Z"/>
 </g>
 <path fill="#6FA3E1" d="M 137.67 48.745 C 119.851 53.609 114.406 59.22 109.58 77.427 C 105.373 92.766 103.393 95.634 92.751 100.872 C 83.965 105.236 83.594 105.61 83.594 109.726 C 83.594 112.095 84.089 114.465 84.832 114.839 C 85.574 115.337 84.955 117.083 83.347 119.328 L 80.624 122.944 L 78.026 120.45 C 76.541 119.079 74.561 117.956 73.571 117.956 C 70.477 117.956 65.404 124.316 61.444 132.921 C 59.341 137.909 56.247 142.149 53.896 143.895 C 50.679 146.389 50.06 147.511 50.802 150.13 C 52.04 155.617 58.103 160.356 63.795 160.356 C 68.497 160.356 73.695 163.598 73.695 166.466 C 73.695 167.215 75.303 168.711 77.283 169.834 C 79.263 171.081 81.862 174.073 83.099 176.692 C 85.574 182.429 94.855 191.906 100.547 194.65 C 102.774 195.772 108.714 197.518 113.664 198.516 C 118.49 199.513 126.285 202.007 130.864 204.127 C 139.897 208.243 147.94 210.113 147.94 208.118 C 147.94 206.247 145.466 204.501 140.268 202.88 C 134.576 201.01 131.854 198.017 134.452 196.52 C 135.442 195.897 138.66 195.024 141.753 194.65 C 155.118 192.779 169.472 186.544 166.749 183.8 C 165.883 182.928 163.408 183.302 158.706 185.047 L 151.9 187.666 L 151.158 183.8 C 150.168 178.563 142.372 171.455 134.824 168.711 C 131.359 167.464 127.275 165.594 125.79 164.596 L 123.068 162.601 L 128.76 157.488 C 135.814 151.252 139.278 145.89 142.991 135.415 C 144.599 130.926 146.332 126.81 146.95 126.187 C 148.435 124.316 154.623 130.926 157.84 137.909 C 159.449 141.401 160.315 144.518 159.82 145.017 C 159.325 145.641 155.241 146.264 150.91 146.638 C 146.579 147.013 142.991 147.761 142.991 148.509 C 142.991 149.257 148.064 150.13 154.499 150.504 C 160.81 151.003 165.457 151.319 169.913 151.342 C 184.216 150.797 188.1 147.289 193.644 146.831 C 206.014 145.806 206.205 142.652 205.003 140.643 C 202.069 135.738 197.513 142.421 195.202 143.041 C 192.719 143.706 180.36 144.477 179.945 143.485 C 179.138 141.551 181.638 134.903 185.936 132.114 C 193.046 127.499 195.778 120.909 189.468 120.292 C 186.704 120.022 183.086 124.34 182.717 128.857 C 182.386 132.902 174.852 140.776 172.384 140.268 C 171.033 139.99 169.839 138.868 168.482 137.536 C 162.913 132.173 160.686 126.562 158.211 112.096 C 157.097 106.11 157.345 105.237 161.181 99.002 C 170.833 83.289 168.358 53.609 156.85 48.247 C 153.138 46.501 145.094 46.75 137.67 48.746 L 137.67 48.745 Z"/>
 <g opacity=".4">
  <linearGradient id="_lgradient_2" x1=".517" x2=".517" y1="0" y2="1">
   <stop offset="0%" style="stop-color:rgb(255,255,255)"/>
   <stop offset="12.5%" stop-opacity=".098" style="stop-color:rgb(255,255,255)"/>
   <stop offset="92.5%" stop-opacity=".098" style="stop-color:rgb(0,0,0)"/>
   <stop offset="100%" stop-opacity=".498" style="stop-color:rgb(0,0,0)"/>
  </linearGradient>
  <path fill="none" stroke="url(#_lgradient_2)" stroke-linecap="round" stroke-linejoin="round" stroke-width="4.077" d="M 165.685 11.947 C 239.74 11.947 250.324 22.504 250.324 96.491 L 250.324 155.742 C 250.324 229.728 239.74 240.285 165.685 240.285 L 90.315 240.285 C 16.26 240.285 5.676 229.728 5.676 155.742 L 5.676 96.491 C 5.676 22.504 16.26 11.947 90.315 11.947 L 165.685 11.947 Z" vector-effect="non-scaling-stroke"/>
 </g>
 <g opacity=".1">
  <path fill="#FFFFFF" d="M 5.676 126.116 L 5.676 155.742 C 5.676 229.728 16.26 240.285 90.315 240.285 L 165.685 240.285 C 239.74 240.285 250.324 229.728 250.324 155.742 L 250.324 126.116 L 5.676 126.116 Z"/>
 </g>
</svg>
